src/basic/800/u1F5E9-speech-baloon.svg

<svg width="14" height="16" viewBox="0 0 14 16" fill="none" xmlns="http://www.w3.org/2000/svg">
<path d="M1.34599,10.962l0.42568,-0.2623c0.07765,0.1261 0.09547,0.28 0.04866,0.4204zM2.94074,12.6864l-0.15812,-0.4743c0.15447,-0.0515 0.32433,-0.0246 0.45528,0.0722zM0.5,13.5l0.15811,0.4743c-0.17967,0.0599 -0.37775,0.0132 -0.51167,-0.1207c-0.13392,-0.134 -0.18068,-0.332 -0.12079,-0.5117zM1,8c0,0.98017 0.27943,1.90086 0.77167,2.6997l-0.85136,0.5246c-0.58466,-0.9489 -0.92031,-2.05002 -0.92031,-3.2243zM7,2.5c-3.35214,0 -6,2.49936 -6,5.5h-1c0,-3.62678 3.17244,-6.5 7,-6.5zM13,8c0,-3.00064 -2.6479,-5.5 -6,-5.5v-1c3.8276,0 7,2.87322 7,6.5zM7,13.5c3.3521,0 6,-2.4994 6,-5.5h1c0,3.6268 -3.1724,6.5 -7,6.5zM3.2379,12.2843c1.02656,0.7586 2.33376,1.2157 3.7621,1.2157v1c-1.64301,0 -3.15838,-0.5261 -4.35643,-1.4115zM3.09885,13.1608l-2.44074,0.8135l-0.31623,-0.9486l2.44073,-0.8136zM0.02566,13.3419l0.84599,-2.538l0.94868,0.3162l-0.84599,2.538z" fill="black"/>
</svg>

<svg width="14" height="16" viewBox="0 0 14 16" fill="none" xmlns="http://www.w3.org/2000/svg">
<path d="M1.34599 10.962L1.77167 10.6997C1.84932 10.8258 1.86714 10.9797 1.82033 11.1201L1.34599 10.962ZM2.94074 12.6864L2.78262 12.2121C2.93709 12.1606 3.10695 12.1875 3.2379 12.2843L2.94074 12.6864ZM0.5 13.5L0.658113 13.9743C0.478446 14.0342 0.280363 13.9875 0.146446 13.8536C0.0125303 13.7196 -0.0342312 13.5216 0.0256586 13.3419L0.5 13.5ZM1 8C1 8.98017 1.27943 9.90086 1.77167 10.6997L0.920308 11.2243C0.335645 10.2754 0 9.17428 0 8H1ZM7 2.5C3.64786 2.5 1 4.99936 1 8H0C0 4.37322 3.17244 1.5 7 1.5V2.5ZM13 8C13 4.99936 10.3521 2.5 7 2.5V1.5C10.8276 1.5 14 4.37322 14 8H13ZM7 13.5C10.3521 13.5 13 11.0006 13 8H14C14 11.6268 10.8276 14.5 7 14.5V13.5ZM3.2379 12.2843C4.26446 13.0429 5.57166 13.5 7 13.5V14.5C5.35699 14.5 3.84162 13.9739 2.64357 13.0885L3.2379 12.2843ZM3.09885 13.1608L0.658113 13.9743L0.341887 13.0257L2.78262 12.2121L3.09885 13.1608ZM0.0256586 13.3419L0.871649 10.8039L1.82033 11.1201L0.974341 13.6581L0.0256586 13.3419Z" fill="black"/>
</svg>
